X:1
T:The Well-Tempered Clavier Part II Praeludium XXIII
T:BWV 892
T:J. S. Bach
%%score { ( 1 3 ) | ( 2 4 ) }
L:1/8
M:4/4
K:B
V:1 treble nm="Harp"
V:3 treble 
V:2 bass 
V:4 bass 
V:1
 z/ B,/C/D/ E/F/G/A/ B/4A/4Bc/ d/4c/4d/4c/4d/4c/4B/4c/4 | d/A/B/d/ e/A/B/e/ f/B/g/f/ e/d/c/B/ | %2
 A/^E/F/c/ A/c/F/c/ A/E/F/c/ A/c/F/c/ | B/^E/F/d/ B/d/F/d/ B/E/F/d/ B/d/F/d/ | %4
 c/^E/F/=e/ c/e/A/e/ c/E/F/e/ c/e/A/e/ | d/A/B/f/ d/f/B/f/ d/A/B/f/ d/f/B/f/ | %6
 =a/e/f/a/ d/f/B/f/ a/f/e/d/ e/d/c/B/ | g/e/d/c/ d/c/B/A/ f/d/c/B/ c/B/A/G/ | %8
 e/d/c/d/ eG F/G/A/B/ c/d/e/c/ | d/e/d/c/ B/A/G/F/ ^E/C/E/G/ c2- | %10
 c/B/A/G/ F/^E/D/c/ B/A/G/F/ E/D/C/B/ | [FA]2 z2 z cfd | e4- ede^e | f4- f^ef^^f | %14
 g2- g/d/g/f/ e/d/c/B/ A/B/c/G/ | ^^F/G/A/E/ D/C/B,/A,/ B,/D/G/B,/ A,/G/A,/F/ | %16
 G/[I:staff +1]B,/C/D/ G,/[I:staff -1] z/ z z/[I:staff +1] A,/B,/C/ B,/A,/G,/^F,/ | %17
 ^E,/G,/A,/B,/[I:staff -1] z z/[I:staff +1] F,/ G,/A,/[I:staff -1] z z/ ^E/F/G/ | %18
 A/F/^E/D/ C/ z/ z z/[I:staff +1] G,/A,/B,/ A,/G,/F,/E,/ | %19
 D,/F,/G,/=A,/[I:staff -1] z/ z[I:staff +1] E,/ F,/G,/[I:staff -1] z z/ D/E/F/ | %20
 G/E/D/C/ B,/ z/ z z/ D/E/F/ E/D/C/B,/ | %21
 A,/C/D/E/ z/ z[I:staff +1] B,/[I:staff -1] C/D/ E/F/ G/ A/B/c/ | %22
 d/B/A/G/ F/ z/ z z g/4f/4g/4f/4{e} d{c}B | b4- bg{f}^e{d}c | a4- af{e}d{c}B | %25
 ^e/f/ g2 c ^^f/4g/4a/ c2 a | aggf g/4f/4g/4f/4g/4f/4g/4f/4 g/4f/4g/4f/4 ^e/f/ | %27
 ^e4 ^E/F/G/A/ G/F/E/D/ | ^^C/^E/F/G/ z z/ D/ E/F/ G/A/ ^^B/ ^^c/d/^e/ | %29
 f/d/A/F/[I:staff +1] D/C/^B,/A,/ B,/D/G/[I:staff -1] ^B/ d/f/=e/d/ | %30
 e/c/G/E/[I:staff +1] C/B,/A,/G,/ A,/C/F/[I:staff -1] A/ c/e/d/c/ | %31
 d/B/F/D/[I:staff +1] B,/=A,/G,/F,/ G,/B,/=D/[I:staff -1] ^E/ G/B/A/G/ | %32
 A/D/E/c/ A/c/E/c/ A/D/E/c/ A/c/E/c/ | F/C/=D/c/ F/c/D/c/ F/C/D/B/ F/B/D/B/ | %34
 =D/A,/B,/^E/ D/E/B,/E/ D/A,/B,/E/ D/E/B,/E/ | =D/A,/B,/F/ C/F/B,/^E/ F z z2 | %36
 z/ B/A/G/ F/E/D/C/ D/ B/c/d/ e/f/g/a/ | b/f/d/B/ c/b/=a/g/ afda | g/e/B/G/ A/g/f/e/ fd^Bf | %39
 e/c/G/E/ F/e/d/c/ d/B/A/G/ A/G/F/^E/ | c/A/G/F/ G/F/^E/D/ B/G/F/E/ F/E/D/C/ | %41
 A/G/F/G/ AC B,/C/D/E/ F/G/=A/F/ | G/=A/G/F/ E/D/C/B,/ ^A,/F/B,/F/ E/B,/A,/E/ | %43
[K:bass] D/C/B,/A,/ B,/D/F/=A,/ G,/F/E/D/ C/D/E/B,/ | %44
 ^A,/B,/C/G,/ F,/E,/D,/C,/ D,/F,/B,/D,/ C,/B,/E,/A,/ | [D,F,B,] z z2 z4 |] %46
V:2
 B,, z z2 z/ B,/A,/G,/ F,/E,/D,/C,/ | %1
 B,, z D,/4C,/4D,/4C,/4D,/4C,/4B,,/4C,/4 D, z/ E,/ F,/4E,/4F,/4E,/4F,/4E,/4D,/4E,/4 | %2
 F,A,CA, F,A,CE, | D,B,DB, F,B,DB, | A,,CEC A,CA,F, | B,,DFD B,DB,F, | D,B,F,D, B,,F,B,D, | %7
 E,G,A,,G, D,F,G,,F, | C,/D,/E,/F,/ G,/A,/B,/G,/ A,CA,F, | %9
 B,B,, B,/4A,/4B,3/2- B,/A,/G,/F,/ ^E,/C,/E,/G,/ | A,CD,F, G,B,C,^E, | %11
 F,/F,,/G,,/A,,/ B,,/C,/D,/^E,/ F,/G,/F,/=E,/ D,/G,/F,/G,/ | %12
 C,/D,/E,/C,/ F,/E,/D,/C,/ B,,/C,/B,,/A,,/ G,,/C,/B,,/C,/ | %13
 F,,/C,/F,/E,/ D,/G,/F,/G,/ C,/D,/C,/B,,/ A,,/D,/C,/D,/ | G,,D,G,B,, C,D,E,A,, | %15
 D,C,B,,^^F,, G,,E,,C,,D,, | G,,2 z/ D,/^E,/^^F,/ G,/ z/ z z2 | %17
 C,, z C,/D,/E,/ z/ z B,/C/ D/ z/ z | F,, z z/ B,/A,/G,/ F,/ z/ z z2 | %19
 B,,, z B,,/C,/D,/ z/ z =A,/B,/ C/ z/ z | E,, z z/ =A,/G,/F,/ E,/F,/G,/A,/ G,/F,/E,/D,/ | %21
 C, z F,/G,/A,/ z/ z4 | B,, z z/ E/D/C/ B,/D/F,/D/ B,/D/F,/D/ | %23
 G,/B,/D,/B,/ G,/B,/D,/B,/ G,/C/^E,/C/ G,/C/E,/C/ | %24
 F,/A,/C,/A,/ F,/A,/C,/A,/ F,/B,/D,/B,/ F,/B,/D,/B,/ | %25
 G,/C/^E,/C/ G,/C/E,/C/ A,/D/^^F,/D/ A,/D/F,/D/ | B,/D/G,/D/ B,/D/G,/D/ ^B,/D/^^G,/D/ B,/D/G,/D/ | %27
 A,4 z/ D,/^E,/F,/ E,/D,/^^C,/^B,,/ | ^E, z A,/^B,/^^C/ z/ z4 | D, z z2 G, z z2 | G, z z2 F, z z2 | %31
 F, z z2 ^E, z z2 | F,F,,A,,C, F,A,CA, | B,F,=D,F, D,B,,D,F, | z G,G,G, G,G,G,G, | F,4- F, z z2 | %36
 D,/B,,/C,/D,/ E,/F,/G,/A,/ B, z D/4C/4D/4C/4D/4C/4B,/4C/4 | %37
 D z F/4^E/4F/4E/4F/4E/4D/4E/4 F/=E/D/C/ B,/=A,/G,/F,/ | E,DC^A, D/C/^B,/A,/ G,/F,/E,/D,/ | %39
 C,B,A,F, B,,D,^E,G, | A,,C,D,F, G,,B,,C,^E, | F,,/G,,/A,,/B,,/ C,/D,/E,/C,/ D,F,D,B,, | %42
 E,E,, E,/4D,/4E,3/2- E,D,C,F, | B,,C,D,B,, E,,G,,E,,C,, | F,,G,,A,,F,, B,,G,,E,,F,, | %45
 [B,,,B,,] z z2 z4 |] %46
V:3
 x8 | x8 | x8 | x8 | x8 | x8 | x8 | x8 | x8 | x8 | z4 z2 z C- | C2 z2 z A ^B2 | cG=A^A B4- | %13
 BAB^B c4- | c/c/B/A/ B/ z/ z z4 | x8 | x8 | x8 | x8 | x8 | x8 | x8 | x8 | z gdf ^e z z2 | %24
 z fce d z z2 | z B/A/ B2 z A/G/ Ac | cBdc d4- | d/d/^^c/^B/ c/A/=B/G/ z4 | x8 | x8 | x8 | x8 | %32
 x8 | x8 | x8 | =D2 A,G, [A,C] z z2 | x8 | x8 | x8 | x8 | x8 | x8 | x8 |[K:bass] x8 | x8 | x8 |] %46
V:4
 x8 | x8 | x8 | x8 | x8 | x8 | x8 | x8 | x8 | x8 | x8 | x8 | x8 | x8 | x8 | x8 | x8 | x8 | x8 | %19
 x8 | x8 | F,, z z2 z4 | x8 | x8 | x8 | x8 | x8 | x8 | A,, z z2 z4 | x8 | C, z z2 z4 | %31
 B,, z z2 z4 | x8 | x8 | F,,F,,F,,F,, F,,F,,F,,F,, | F,,4- F,,/G,,/A,,/B,,/ C,/^D,/=E,/C,/ | x8 | %37
 x8 | x8 | x8 | x8 | x8 | x8 | x8 | x8 | x8 |] %46

